X:173
T:Mason's Apron
M:C|
L:1/8
R:Reel
K:A
|:ed|c2A2 ABAF|EFAB c2BA|dBB2 BcBA|Bcde f2ed|
c2A2 ABAF|EFAB c2BA|Bcde fefa|AAcB A2:|
|:ed|cAeA fAeA|cAeA fedc|dBfB gBfB|dBfB gfed|
cAeA fAeA|cAeA fedc|Bcde fefa|AAcB A2:|]

